X:10
T: With Ourselves
C: J.Harling
Z: B.Black
R: reel
M: 4/4
L: 1/8
K: Edor
D |EDEB GE (3EDE |DEFD GFFD |EDEB GEEA |Bded e3 f |
gB (3B=cB gedB | AF (3FFF dBAF |EDEB GE (3EDE | DEFD E3 ||
d |edef g2 af |ge e2 dBAF |D2 (3FED ADFD | defd gfed |
edef g2 af | ge e2 dBAF |D2 (3FED ADFA |dBAF E3 ||
d |edBd edBd |gBfB eBdA |D2 (3fed ADFD |defd gfed |
edef g2 af | ge e2 dBAF |D2 (3FED ADFD |dBAF E3 ||
